!!! OTL: Literature140
!!! Chapter: 5
!!! Section: IV
!!! Page: 378
!!! Mode: 
!!! Encoder: DJB
**kern
*staff1
*I"Piano
=1-
*clefF4
*k[]
*e:
*M4/4
4E\
4E\
4B\
8B\L
8B\J
=2
8B\L
8B\
8A\
8G\J
2F\
=3
*M2/4
4E\
4r
=4
*M4/4
4E\
4E\
4B\
8B\L
8B\J
=5
8B\L
8B\
8A\
8G\J
2F\
=6
*M2/4
4E\
4r
=7
*M4/4
4G#\
4G#\
4G#\
4G#\
=8
4G#\
4F#\
8d#\L
8c#\
8B\
8A\J
=9
!!linebreak:original
4G#\
4G#\
4G#\
4G#\
=10
4G#\
4A#\
8d#\L
8c#\
8B\
8A#\J
=11
2G#\
4G#\
4G#\
=12
2.c#\
4c#\
=13
4F#\
4r
2r
=14
4E\
4E\
4B\
8B\L
8B\J
=15
8B\L
8B\
8A\
8G\J
2F\
=16
*M2/4
4E\
4r
=17
*M4/4
4E\
4E\
4B\
8B\L
8B\J
=18
!!linebreak:original
8B\L
8B\
8A\
8G\J
2F\
=19
*M2/4
4E\
4r
==
*-
